X: 9
T: the Champaign Jig Goes to Columbia   [RJ]
C: Liz Carroll (1999)
R: jig
Z: 2018 John Chambers <jc:trillian.mit.edu>
S: Handout at RJ practice
S: https://thesession.org/tunes/2438 (to fix a couple of typos)
S: https://www.youtube.com/watch?v=5XjMwfAy2TQ
M: 6/8
L: 1/8
K: D
de |\
"D"f3 dAF | ABd "(A7)"F2E | "D"FAd dcd | "A"ecA gfe |\
"D"f3 dAF | ABd "(A7)"F2E | "D"EDf dAF | "A"EDC "D"D :|
|: FA |\
"D"d3 afd | "A"cBA ecA | "G"BAG dBG | "A"FED EFA |\
"D"f3 dAF | ABd "(A7)"F2E | "D"EDf dAF | "A"EDC "D"D :|

%%sep 1 1 500

